!!!!SEGMENT: pl-cz--iii-979--001-005_kasprzykowski-ignacy--missa-es-et-resurrexit.krn
!!!cenid: 18xx:860
!!!COM: Kasprzykowski, Ignacy
!!!COM-rismID: pe30098316
!!!CDT: -1752/02/17
!!!CNT:
!!!OPR: Missa Es
!!!OTL: Et resurrexit
!!!OMV: 005
!!!PDT:
!!!AGN: Sacred; Mass
!!!YEC: Copyright 2022 Narodowy Instytut Fryderyka Chopina (https://polishscores.org)
!!!YEM: License CC-BY-4.0 (https://creativecommons.org/licenses/by/4.0)
!!!SMS-siglum: PL-CZ
!!!SMS-shelfmark: III-979
!!!SMS-shelfwork: 001-005 M
!!!SMS-variant:
!!!SMS-altvar:
!!!NIFC-rismSourceID: 300000565
!!!NIFC-rismChildID: 300000565
!!!NIFC-islandoraID: pl-cz:41795
!!!URL-pdf-islandora: https://repozytorium.nifc.pl/islandora/object/pl-cz%3A41795/datastream/PDF/view
!!!URL-scan: https://polish.musicsources.pl/pl/lokalizacje/galeria/rekopisy/7044/1 @EN{Scan on Polish Music Sources Website} @PL{Skany w portalu Dziedzictwo Muzyki Polskiej w otwartym dostępie}
!!!IIIF:
!!!ONB-nifc: UWAGA: części Mszy: Kyrie, Gloria, Credo, Et incarnatus, Et resurrexit, Sanctus, Pleni, Benedictus, Agnus
!!!OMD: Allegro Moderato
!!!AIN: 1 bass 1 clars 1 soprn 1 violn
!!!key: E-
**kern	**dynam	**kern	**text	**kern	**text	**kern	**dynam
*staff4	*	*staff3	*	*staff2	*	*staff1	*
*I"Violino Primo in Dis	*	*I"Baſso in Dis	*	*I"Canto in. Dis	*	*I"Clarinetto Primo in B	*
*I'vl 1 in Dis	*	*I'B	*	*I'S	*	*I'cl 1 in B	*
*Ivioln	*	*Ibass	*	*Isoprn	*	*Iclars	*
*ICstr	*	*ICvox	*	*ICvox	*	*ICww	*
*	*	*IGsolo	*	*IGsolo	*	*	*
*mI"Violino I	*	*mI"Basso	*	*mI"Soprano	*	*mI"Clarinetto I in Bb	*
*clefG2	*	*clefF4	*	*clefC1	*	*clefG2	*
*	*	*	*	*mclefG2	*	*	*
*	*	*	*	*	*	*ITrd1c2	*
*	*	*ok[e-a-b-]	*	*ok[b-a-e-]	*	*	*
*k[b-e-a-]	*	*k[b-e-a-]	*	*k[b-e-a-]	*	*k[b-e-a-]	*
*E-:	*	*E-:	*	*E-:	*	*E-:	*
*M3/4	*	*M3/4	*	*M3/4	*	*M3/4	*
*	*	*all\right	*	*all\right	*	*	*
=1	=1	=1	=1	=1	=1	=1	=1
!LO:TX:a:mod=:t=Moderato	!LO:DY:b:t=for.	!LO:TX:a:mod=:t=Allo Moderato	!	!LO:TX:a:mod=:t=Allo Moderato	!	!LO:TX:a:mod=:t=Moderato	!LO:DY:b:t=for.
4G/ 4e- 4ee-	f	4E-\	Et	4ee-\	Et	4ee-\	f
4d/ 4b- 4ff	.	4B-\	re-	4ff\	re-	4ff\	.
4r	.	4r	.	4r	.	4r	.
=2	=2	=2	=2	=2	=2	=2	=2
!	!	!	!LO:MO:mod=-sur-	!	!LO:MO:mod=-sur-	!	!
4e-\ 4b- 4gg	.	4E-\	-su-	4gg\	-su-	4gg\	.
!	!	!	!	!	!LO:MO:mod=-re-	!	!
4b-\ 4aa-	.	4E-\	-re-	4ff\	-rexit	4aa-\	.
4r	.	4r	.	4r	.	4r	.
=3	=3	=3	=3	=3	=3	=3	=3
!	!LO:DY:b:t=p.	!LO:TX:a:mod=:t=2	!	!LO:TX:a:mod=:t=2	!	!LO:TX:a:mod=:t=2	!
(>4gg\	p	1.r	.	1.r	.	1.r	.
4ff\	.	.	.	.	.	.	.
4ee-\)	.	.	.	.	.	.	.
=4	=4	=4	=4	=4	=4	=4	=4
8.dd\L	.	.	.	.	.	.	.
16cc\Jk	.	.	.	.	.	.	.
8b-/L	.	.	.	.	.	.	.
8a-/	.	.	.	.	.	.	.
8g/	.	.	.	.	.	.	.
8f/J	.	.	.	.	.	.	.
!	!	!LO:LB:g=original	!	!	!	!	!
=5	=5	=5	=5	=5	=5	=5	=5
!	!LO:DY:b:t=f.	!	!	!LO:SIC:o=4ee-\	!LO:MO:mod=-xit	!	!
4G/ 4e- 4ee-	f	(>4E-\	-xit	(4ee-	re-	4ee-\	.
!	!	!	!	!	!LO:MO:mod=.	!	!
!	!	!	!	!LO:SIC:o=4ff\	!	!	!
4d/ 4b- 4ff	.	4F\)	.	4ff)	-su-	4ff\	.
4r	.	4r	.	4r	.	4r	.
!!LO:MO:ori
=6	=6	=6	=6	=6	=6	=6	=6
4e-/ 4b- 4gg	.	8E-\	ter-	4gg\	-re-	4gg\	.
.	.	8E-\	.	.	.	.	.
4d/ 4b- 4aa-	.	4D\	-tia	4ff\	-xit	4aa-\	.
4r	.	4r	.	4r	.	4r	.
!LO:LB:g=original	!	!	!	!	!	!	!
!!LO:MO:end
=6	=6	=6	=6	=6	=6	=6	=6
4e-/ 4b- 4gg	.	8E-\	ter-	8gg\	ter-	4gg\	.
.	.	8E-\	-ti-	8gg	-ti-	.	.
4d/ 4b- 4aa-	.	4D\	-a	4ff\	-a	4aa-\	.
4r	.	4r	.	4r	.	4r	.
!LO:LB:g=original	!	!	!	!	!	!	!
=7	=7	=7	=7	=7	=7	=7	=7
16gg\LL	.	4r	.	4r	.	4r	.
16bb-\	.	.	.	.	.	.	.
16aa-\	.	.	.	.	.	.	.
16ff\JJ	.	.	.	.	.	.	.
4ee-\	.	4E-\	di-	4ee-\	di-	4ee-\	.
4dd\	.	4BB-\	.	4dd\	.	4dd\	.
!	!	!	!	!LO:LB:g=original	!	!	!
=8	=8	=8	=8	=8	=8	=8	=8
!LO:MO:mod=!LO&colon;TX&colon;i&colon;t=dolce	!	!	!	!	!	!	!
!LO:TX:b:i:t=dolce	!LO:DY:t=p.	!	!	!	!	!	!
4.ee-\	p	4E-\	-e	4ee-\	-e	4ee-\	.
.	.	4r	.	4r	.	4r	.
16dd\LL	.	.	.	.	.	.	.
16ee-\JJ	.	.	.	.	.	.	.
16ff\LL	.	4r	.	4r	.	4r	.
16ee-\	.	.	.	.	.	.	.
16dd\	.	.	.	.	.	.	.
16ee-\JJ	.	.	.	.	.	.	.
=9	=9	=9	=9	=9	=9	=9	=9
!	!	!LO:TX:a:mod=:t=8	!	!LO:TX:a:mod=:t=8	!	!LO:TX:a:mod=:t=6	!
(>8een\L	.	2.r	.	0.r	.	0.r	.
8ff\)	.	.	.	.	.	.	.
8gg'\	.	.	.	.	.	.	.
8ff'\	.	.	.	.	.	.	.
(>8dd\	.	.	.	.	.	.	.
8b-\J)	.	.	.	.	.	.	.
=10	=10	=10	=10	=10	=10	=10	=10
16b-\LL	.	2.r	.	.	.	.	.
16dd\JJ	.	.	.	.	.	.	.
4ff\	.	.	.	.	.	.	.
16een\LL	.	.	.	.	.	.	.
16ff\JJ	.	.	.	.	.	.	.
16gg\LL	.	.	.	.	.	.	.
16ff\	.	.	.	.	.	.	.
16bb-\	.	.	.	.	.	.	.
16aa-\JJ	.	.	.	.	.	.	.
=11	=11	=11	=11	=11	=11	=11	=11
(>8ff\L	.	2.r	.	.	.	.	.
8ff#X\	.	.	.	.	.	.	.
8gg\	.	.	.	.	.	.	.
8dd\)	.	.	.	.	.	.	.
8ffn\	.	.	.	.	.	.	.
8ee-\J	.	.	.	.	.	.	.
=12	=12	=12	=12	=12	=12	=12	=12
8bb-\	.	2.r	.	.	.	.	.
4bb-\	.	.	.	.	.	.	.
16eee-\LL	.	.	.	.	.	.	.
16bb-\JJ	.	.	.	.	.	.	.
16aa-\LL	.	.	.	.	.	.	.
16gg\	.	.	.	.	.	.	.
16ff\	.	.	.	.	.	.	.
16ee-\JJ	.	.	.	.	.	.	.
!LO:LB:g=original	!	!	!	!	!	!	!
=13	=13	=13	=13	=13	=13	=13	=13
16dd\LL	.	2.r	.	0.r	.	1.r	.
16cc\JJ	.	.	.	.	.	.	.
4cc\	.	.	.	.	.	.	.
16ccc\LL	.	.	.	.	.	.	.
16bb-\JJ	.	.	.	.	.	.	.
16aa-\LL	.	.	.	.	.	.	.
16gg\	.	.	.	.	.	.	.
16ff\	.	.	.	.	.	.	.
16ee-\JJ	.	.	.	.	.	.	.
=14	=14	=14	=14	=14	=14	=14	=14
16dd\LL	.	2.r	.	.	.	.	.
16cc\JJ	.	.	.	.	.	.	.
4b-\	.	.	.	.	.	.	.
8b-\L	.	.	.	.	.	.	.
8cc\	.	.	.	.	.	.	.
8dd\J	.	.	.	.	.	.	.
=15	=15	=15	=15	=15	=15	=15	=15
16ee-\LL	.	2.r	.	.	.	4ee-\	.
16b-\	.	.	.	.	.	.	.
16an\	.	.	.	.	.	.	.
16b-\JJ	.	.	.	.	.	.	.
16gg\LL	.	.	.	.	.	8r	.
16b-\	.	.	.	.	.	.	.
16aa-\	.	.	.	.	.	8aa-\L	.
16b-\JJ	.	.	.	.	.	.	.
16gg\LL	.	.	.	.	.	8gg\	.
16b-\	.	.	.	.	.	.	.
16ff\	.	.	.	.	.	8ff\J	.
16b-\JJ	.	.	.	.	.	.	.
!LO:LB:g=original	!	!	!	!	!	!	!
=16	=16	=16	=16	=16	=16	=16	=16
!LO:TX:t=P:problem=1 takt zapisany repetycją	!	!	!	!	!	!	!
16ee-\LL	.	2.r	.	.	.	4ee-\	.
16b-\	.	.	.	.	.	.	.
16an\	.	.	.	.	.	.	.
16b-\JJ	.	.	.	.	.	.	.
16gg\LL	.	.	.	.	.	8r	.
16b-\	.	.	.	.	.	.	.
16aa-\	.	.	.	.	.	8aa-\L	.
16b-\JJ	.	.	.	.	.	.	.
16gg\LL	.	.	.	.	.	8gg\	.
16b-\	.	.	.	.	.	.	.
16ff\	.	.	.	.	.	8ff\J	.
16b-\JJ	.	.	.	.	.	.	.
=17	=17	=17	=17	=17	=17	=17	=17
!	!LO:DY:b:t=for.:rj	!	!	!	!	!	!
4G/ 4e- 4ee-	f	4E-\	Et	4ee-\	Et	4ee-\	.
4d/ 4b- 4ff	.	4B-\	re-	4ff\	re-	4ff\	.
4r	.	4r	.	4r	.	4r	.
=18	=18	=18	=18	=18	=18	=18	=18
!	!	!	!LO:MO:mod=-sur-	!	!LO:MO:mod=-sur-	!	!
4e-/ 4b- 4gg	.	4E-\	-su-	4gg\	-su-	4gg\	.
4d/ 4b- 4aa-	.	4D\	-re-	4ff\	-re-	4aa-\	.
4r	.	4r	.	4r	.	4r	.
=19	=19	=19	=19	=19	=19	=19	=19
!	!LO:DY:b:t=p.	!LO:TX:a:mod=:t=2.	!	!LO:TX:a:mod=:t=2	!	!LO:TX:a:mod=:t=2	!
(>4gg\	p	1.r	.	1.r	.	1.r	.
4ff\	.	.	.	.	.	.	.
4ee-\)	.	.	.	.	.	.	.
=20	=20	=20	=20	=20	=20	=20	=20
8.dd\L	.	.	.	.	.	.	.
16cc\Jk	.	.	.	.	.	.	.
!LO:TX:t=P:problem=urwana kartka. Prawdopodobnie tekst jak takcie 4	!	!	!	!	!	!	!
8b-/L	.	.	.	.	.	.	.
8a-/yy	.	.	.	.	.	.	.
8g/yy	.	.	.	.	.	.	.
8f/Jyy	.	.	.	.	.	.	.
!LO:LB:g=original	!	!LO:LB:g=original	!	!	!	!	!
=21	=21	=21	=21	=21	=21	=21	=21
4G/ 4e- 4ee-	.	4E-\	-xit	4ee-\	-xit	4ee-\	.
4d/ 4b- 4ff	.	4F\	ter-	4ff\	ter-	4ff\	.
4r	.	4r	.	4r	.	4r	.
=22	=22	=22	=22	=22	=22	=22	=22
4e-/ 4b- 4gg	.	4E-\	-ti-	4gg\	-ti-	4gg\	.
4d/ 4b- 4aa-	.	4D\	-a	4ff\	-a	4aa-\	.
4r	.	4r	.	4r	.	4r	.
=23	=23	=23	=23	=23	=23	=23	=23
(>16gg\LL	.	4r	.	4r	.	4r	.
16bb-\	.	.	.	.	.	.	.
16aa-\	.	.	.	.	.	.	.
16ff\JJ)	.	.	.	.	.	.	.
4ee-\	.	4E-\	di-	4ee-\	di-	4ee-\	.
4dd\	.	4BB-\	-e	4dd\	-e	4dd\	.
=24	=24	=24	=24	=24	=24	=24	=24
!	!	!LO:MO:mod=*null:null	!	!	!	!	!
*	*	*2\right	*	*	*	*	*
!LO:TX:t=P:problem=niewyraźny zapis ostatnie 2 takty	!	!	!	!	!	!	!
4G/yy 4e- 4ee-	.	2E-\	Se-	2ee-\	Se-	4ee-\	.
4G/yy 4e- 4ee-	.	.	.	.	.	4gg\	.
4G/yy 4e- 4ee-	.	4E-\	-cun-	4ee-\	-cun-	4gg\	.
=25	=25	=25	=25	=25	=25	=25	=25
!	!	!	!	!	!	!LO:MO:mod=*null:null	!
*	*	*	*	*	*	*2\right	*
2G/yy 2e- 2ee-	.	2E-\	-dum	2ee-\	-dum	2ee-\	.
4r	.	4r	.	4r	.	4r	.
!LO:PB:g=original	!	!LO:PB:g=original	!	!LO:LB:g=original	!	!LO:LB:g=original	!
==	==	==	==	==	==	==	==
*-	*-	*-	*-	*-	*-	*-	*-
!!!system-decoration: (s1)[(s2,s3)](s4)
!!!RDF**kern: < = below
!!!RDF**kern: > = above
!!!filter-modern: sic -sq | shed -e "s/:TX:t=P:/:tx:t=p:/L" | shed -e "s/:rj/:RJ/L" | modori -m | shed -e "s/LO:DY:(a|b|rj)/LO:dy:$1/L" | autostem -r | tie -s | shed -k -e "s/[<>]//g" | humtr -p | shed -e "s/yy//"
!!!ENC: Anastazja Marusiak
!!!END: 2020-08-10
!!!EED: Marta Chmielewska
!!!EEV: 2021-11-19
!!!ENC-modern: Andrzej Borzym
!!!END-modern: 2022-06-17
